X:8
T:An Bouchail Breoighte
T:The Sick Boy
B:Joyce, P. W.; "Old Irish Folk Music and Songs"
R:hornpipe
R:song air
H:From my own memory--as I learned it in childhood.
L:1/8
M:C
K:G
GABG A2 G2|A2 G2 G2 D2|GABG A2 G2|cBAG F2 A2|
GABG A2 G2|A2 G2 G2 =f2|e2 g2 =f2 d2|cBAG F2 A2:|
|:BABG c2 A2|dcBA G2 A2|BABG DGBG|cBAG F2 A2|
BABG cBcA|dcBA G2 g2|gbag fefd|dcAG F2 A2:|
|:gbag abag|abag g2 d2|gbag abag|abag f2 a2|
gbag abag|agfa g2 de|=fefd defd|cBAG F2 A2:|

